X:126
T:Derby Captain. JJo8.126
B:J.Johnson Choice Collection Vol 8 1758
Z:vmp.Simon Wilson 2013 www.village-music-project.org.uk
M:9/8
L:1/8
Q:3/8=120
K:Bb
|:B3DEF GAB|cde deB AGF|B3DEF GAB|cec AFA!fermata!B3:|
|:f3dBd gbg|=ece fcB AGF|d3BdB GAB|AGF =ECEF3:|
